theme/images/module-icons/card.svg

<svg viewBox="0 0 32 32" xmlns="http://www.w3.org/2000/svg"><path d="m25.61.82h-19.22c-1.04 0-1.89.85-1.89 1.89v26.59c0 1.04.85 1.89 1.89 1.89h19.22c1.04 0 1.89-.85 1.89-1.89v-26.6c0-1.04-.85-1.89-1.89-1.89zm-.61 27.86h-17.99v-25.36h17.98v25.36z"/><path d="m21.99 20.06h-12.03c-.41 0-.75.34-.75.75s.34.75.75.75h12.03c.41 0 .75-.34.75-.75s-.34-.75-.75-.75z"/><path d="m9.83 25.49h6.62c.41 0 .75-.34.75-.75s-.34-.75-.75-.75h-6.62c-.41 0-.75.34-.75.75s.34.75.75.75z"/><path d="m9.83 17.11h12.16c.41 0 .75-.34.75-.75v-10.21c0-.41-.34-.75-.75-.75h-12.16c-.41 0-.75.34-.75.75v10.21c0 .41.34.75.75.75zm.75-10.21h10.66v8.71h-10.66z"/></svg>

<?xml version="1.0" encoding="UTF-8"?><svg id="Lager_1" xmlns="http://www.w3.org/2000/svg" viewBox="0 0 32 32"><path d="M25.61,.82H6.39c-1.04,0-1.89,.85-1.89,1.89V29.3c0,1.04,.85,1.89,1.89,1.89H25.61c1.04,0,1.89-.85,1.89-1.89V2.7c0-1.04-.85-1.89-1.89-1.89Zm-.61,27.86H7.01V3.32H24.99V28.68Z"/><path d="M21.99,20.06H9.96c-.41,0-.75,.34-.75,.75s.34,.75,.75,.75h12.03c.41,0,.75-.34,.75-.75s-.34-.75-.75-.75Z"/><path d="M9.83,25.49h6.62c.41,0,.75-.34,.75-.75s-.34-.75-.75-.75h-6.62c-.41,0-.75,.34-.75,.75s.34,.75,.75,.75Z"/><path d="M9.83,17.11h12.16c.41,0,.75-.34,.75-.75V6.15c0-.41-.34-.75-.75-.75H9.83c-.41,0-.75,.34-.75,.75v10.21c0,.41,.34,.75,.75,.75Zm.75-10.21h10.66V15.61H10.58V6.9Z"/></svg>
